X:224 
T:West Window*, The  
F:file ID: cre.5/224west_w
B:CRE5.080 (gan ainm)
M:12/8
Q:180
R:jig
K:D
e|f2f afd c2B B2B|cBc ABc dAA A2A|
f2f afd c2B B2B|cBc ABc d3 d2:|
f|a2f d2f afe e2f|g2e b2b afd d2f|
a2f d2f afe e2e|b2a gfe d3 d2:|

%%%

